src/components/stable/gux-icon/icons/cjv-default-event.svg

<svg viewBox="0 0 40 40" version="1.1" xmlns="http://www.w3.org/2000/svg" xmlns:xlink="http://www.w3.org/1999/xlink">
    <title>Default Event</title>
    <g stroke="none" stroke-width="1" fill="none" fill-rule="evenodd">
        <g id="cjv-default-event">
            <circle id="Oval" fill="#FFFFFF" cx="20" cy="20" r="20"/>
            <g fill="#444A52" id="Shape">
                <path d="M20,40 C31.0457,40 40,31.0457 40,20 C40,8.9543 31.0457,0 20,0 C8.9543,0 0,8.9543 0,20 C0,31.0457 8.9543,40 20,40 Z M10.4521,29.4522 L12.3816,23.6443 L17.6742,27.3408 L12.1834,30.7963 C11.2438,31.4201 10.0567,30.5084 10.4521,29.4522 Z M26.3811,22.1558 C26.3811,22.2515 26.3811,22.3003 26.4304,22.3959 L29.0521,29.4992 C29.3982,30.5075 28.2111,31.4192 27.2715,30.7954 L20.494,26.236 C20.3954,26.1872 20.2968,26.1394 20.1479,26.0916 L12.9258,21.0519 L12.8765,21.004 L8.4239,17.4041 C7.5829,16.7325 8.0779,15.3884 9.1663,15.3884 L15.0534,15.3884 C15.5484,15.3884 15.9931,15.1004 16.1419,14.6681 L18.8129,7.7562 C19.1599,6.7479 20.6438,6.7479 20.9899,7.7562 L23.5622,14.6202 C23.5622,14.6681 23.6115,14.7646 23.6608,14.8125 L26.3811,22.1558 Z M26.3318,15.3884 L30.8337,15.3884 C31.9221,15.3884 32.4171,16.7325 31.5761,17.4041 L28.212,20.4281 L26.3318,15.3884 Z"/>
            </g>
        </g>
    </g>
</svg>

<svg viewBox="0 0 40 40" xmlns="http://www.w3.org/2000/svg"><g fill="none" fill-rule="evenodd"><circle fill="#FFF" cx="20" cy="20" r="20"/><path d="M20 40c11.046 0 20-8.954 20-20S31.046 0 20 0 0 8.954 0 20s8.954 20 20 20zm-9.548-10.548l1.93-5.808 5.292 3.697-5.49 3.455c-.94.624-2.127-.288-1.732-1.344zm15.93-7.296c0 .096 0 .144.048.24l2.622 7.103c.346 1.009-.84 1.92-1.78 1.296l-6.778-4.559a2.295 2.295 0 00-.346-.144l-7.222-5.04-.05-.048-4.452-3.6c-.841-.671-.346-2.016.742-2.016h5.887c.495 0 .94-.288 1.089-.72l2.67-6.912c.348-1.008 1.832-1.008 2.178 0l2.572 6.864c0 .048.05.145.099.193l2.72 7.343zm-.05-6.768h4.502c1.088 0 1.583 1.345.742 2.016l-3.364 3.024-1.88-5.04z" fill="#444A52"/></g></svg>
